X: 10642
Q: "Moderate."
M: 6/8
L: 1/8
K: G
[|\
d3 d2d | B3 G3 | A3- A2d | B3 G2z |\
e3 d3 | c3 B3 | A3 ecA | G3 F2z |\
d3 d2d | B3 G3 | A3 A2d | B3 G2z |
~e3 efg | d3 ecA | G3 A3 | (^A3 B2)z |\
~e3 efg | d3 ecA | G3 F3 | G3 zGA |\
ded ded | BdB GBG | ABA ded | B3 G3 |\
e3 d3 | c3 B3 | ~A3 ecA | G3 F2z |
d2d ded | BdB GBG | ABA ded | B3 G3 |\
~e3 efg | d3 ecA | G3 A3 | ^A3 B2z |\
~e3 efg | dgf gec | B3 A3 | G3 z2z |]


